X: 15
T:POTE SH PERT ER SILEY
M:4/4
L:1/4
K:G
D|"G"G2G "D7"FED|"D"D2D "A7"ABC|"D"D2F "E7"E2E|"D"F2F FED|"G"G3 "D"A2:|
P:B
D/2E/2|"D"FE "EM"B2|"G"G2 G:|
P:B
D|"A"E2A "E"ABC|
"G"DEF "E7"E2E|"A"A2G "D"F2A|"G"GAB "D"A2F|"D"F2A A2A|"G"GAG "AM"ABC|"DM"DED "E"D3|
"D"D2F D2F|"D7"E2F G2D|"G"G2G D2:|
P:B
D|"G"D2G BAB|"D"F2D "A"E2G|"D"F2A A2F|"EM"E^FE D2D|"A"E2A G2F|"EM"E2E E2C|"D"FAF D2:|
P:B
D/2D/2|"D"F/2D/2F/2D/2 F/2D/2D/2F/2|
"A"E/2C/2C/2C/2D/2|"A"EA E/2F/2G/2E/2 "D"DD/2F/2 "D"A/2C/2B/2A/2|
"G"BAB D2G|"D"FAF "G"G2B|"DM"DEF "EM"E2E|"D"F3 A3|"D7"FED "E"DEE|"G"DBB "A7"FE^F|"G"G3 "A7"ABC|"D"D2D DFD|
"G"G2B BCB|"D"F3 A3|
"A7"E3 A2F|"G"B2G GFG|
"D"F2A A2F|"EM"G2E "D"F2D|"C"E2G G2G|"D"F2F "G"BAG|"D"F2A A3|
"E"EE2 "D"ADE/2|"D"DA DA|"D"A2 -A3||

----- Generating with seed: ""a/2f/2a/<"..........

